X:5553
T:Rig a Jig
O:england
M:6/8
L:1/8
K:G
|DED D2G|B2G A2B|c2A F2A|
d2c B2A|DED D2G|B2G A2c|B2d cBA|
G3G3||B3d2|e2d B3|
ABA E2F|A2G D3|B3d3|e2d B3|
A B A E2F|(G3G3)|


